data/ubuntu-sans-mono.svg

<svg width="125.44" height="16.8" viewBox="0 0 125.44 16.8" xmlns="http://www.w3.org/2000/svg"><path transform="translate(0 13.16) scale(.014 -.014)" d="m281-15q-79 0-128.5 30.5t-72.5 87-23 132.5v458h78v-447q0-74 18.5-116t51.5-59.5 75-17.5q43 0 75.5 17t51 59 18.5 116v448h78v-458q0-76-22.5-132.5t-71-87-128.5-30.5z"/><path transform="translate(7.84 13.16) scale(.014 -.014)" d="m265-12q-42 0-76.5 4.5t-61 11-44.5 11.5v747l79 14v-279q14 9 47 21t76 12q70 0 121-34.5t78.5-95.5 27.5-141q0-84-31.5-144.5t-87-93.5-128.5-33zm-14 70q83 0 131 51.5t48 148.5q0 56-15 101.5t-48.5 72.5-87.5 27q-34 0-67.5-14.5t-49.5-30.5v-342q23-7 45.5-10.5t43.5-3.5z"/><path transform="translate(15.68 13.16) scale(.014 -.014)" d="m284-11q-75 0-120 30t-65 83.5-20 122.5v293h78v-271q0-68 14-109.5t44-59.5 78-18q35 0 67 4t39 7v447h78v-504q-28-7-76.5-16t-116.5-9z"/><path transform="translate(23.52 13.16) scale(.014 -.014)" d="m83 0v504q53 14 102 19.5t86 5.5q65 0 112-21.5t72.5-70 25.5-130.5v-307h-78v291q0 72-18 107.5t-48.5 47.5-68.5 12q-25 0-53-3t-54-8v-447z"/><path transform="translate(31.36 13.16) scale(.014 -.014)" d="m373-12q-81 0-121 26.5t-53 74.5-13 112v250h-106v67h106v149l78 14v-163h220v-67h-220v-251q0-55 11-85.5t36.5-42.5 68.5-12q40 0 63.5 7.5t41.5 15.5l12-66q-8-4-40-16.5t-84-12.5z"/><path transform="translate(39.2 13.16) scale(.014 -.014)" d="m284-11q-75 0-120 30t-65 83.5-20 122.5v293h78v-271q0-68 14-109.5t44-59.5 78-18q35 0 67 4t39 7v447h78v-504q-28-7-76.5-16t-116.5-9z"/><path transform="translate(54.88 13.16) scale(.014 -.014)" d="m263-15q-48 0-87.5 8.5t-67.5 20-41 19.5l25 65q19-11 63.5-27.5t107.5-16.5q47 0 81 12t53 37 19 64q0 48-24 77.5t-61.5 49.5-78.5 36q-34 14-64.5 31.5t-53.5 39.5-36 51.5-13 67.5q0 89 55.5 139t155.5 50q56 0 104.5-12.5t69.5-29.5l-26-68q-22 13-62.5 27t-88.5 14q-33 0-62.5-12t-48.5-35.5-19-58.5q0-42 18-68t50.5-44 73.5-37q45-19 80-38t59-42.5 36.5-56 12.5-78.5q0-88-60.5-136.5t-169.5-48.5z"/><path transform="translate(62.72 13.16) scale(.014 -.014)" d="m294-12q-40 0-79.5 6.5t-72 24.5-52.5 50.5-20 83.5q0 59 33 94t84 50.5 105 15.5q29 0 56.5-3.5t53.5-9.5v28q0 33-9.5 64t-37 51-81.5 20q-50 0-86.5-7.5t-53.5-14.5l-9 67q17 8 60 15t94 7q76 0 120-25t63-68.5 19-100.5v-328q-34-6-85-13t-102-7zm-6 68q38 0 67.5 3t46.5 7v164q-18 6-45.5 10.5t-58.5 4.5q-35 0-69-8t-56-28-22-56q0-55 36.5-76t100.5-21z"/><path transform="translate(70.56 13.16) scale(.014 -.014)" d="m83 0v504q53 14 102 19.5t86 5.5q65 0 112-21.5t72.5-70 25.5-130.5v-307h-78v291q0 72-18 107.5t-48.5 47.5-68.5 12q-25 0-53-3t-54-8v-447z"/><path transform="translate(78.4 13.16) scale(.014 -.014)" d="m259-12q-32 0-62.5 3t-59.5 10.5-59 20.5l17 74q39-19 82.5-30t93.5-11q66 0 99 17.5t33 54.5q0 27-20.5 45.5t-53 32.5-69.5 26q-31 11-62 24.5t-56 31-40 42.5-15 59q0 41 22.5 73t68.5 50.5 116 18.5q41 0 86-6t76-14l-14-73q-12 8-36.5 13.5t-53.5 9-57 3.5q-64 0-97.5-17t-33.5-57q0-21 17-36.5t45-27 61-23.5q34-13 68.5-27.5t63.5-33.5 46.5-45.5 17.5-62.5q0-48-24.5-80.5t-74-48.5-125.5-16z"/><path transform="translate(94.08 13.16) scale(.014 -.014)" d="m39 0q3 86 8 174t11.5 176 15 174.5 19.5 168.5h77q20-65 38.5-123.5t37-115.5 36.5-117q18 59 35.5 116t36 116 38.5 124h78q16-104 25-216.5t14.5-231.5 11.5-245h-78q-3 78-5.5 177.5t-5.5 206.5-8 207l-105-323h-74l-110 323q-1-99-5-206t-7.5-207-5.5-178z"/><path transform="translate(101.92 13.16) scale(.014 -.014)" d="m278-11q-66 0-117.5 33.5t-81.5 94-30 142.5 29.5 142.5 81.5 94.5 118 34q68 0 120.5-34t82.5-94.5 30-142.5-30-142.5-82.5-94-120.5-33.5zm1 72q45 0 79 23.5t53 68 19 106.5-19 107-53.5 69-79.5 24q-44 0-77.5-24t-52-69-18.5-107 19-106.5 53-68 77-23.5z"/><path transform="translate(109.76 13.16) scale(.014 -.014)" d="m83 0v504q53 14 102 19.5t86 5.5q65 0 112-21.5t72.5-70 25.5-130.5v-307h-78v291q0 72-18 107.5t-48.5 47.5-68.5 12q-25 0-53-3t-54-8v-447z"/><path transform="translate(117.6 13.16) scale(.014 -.014)" d="m278-11q-66 0-117.5 33.5t-81.5 94-30 142.5 29.5 142.5 81.5 94.5 118 34q68 0 120.5-34t82.5-94.5 30-142.5-30-142.5-82.5-94-120.5-33.5zm1 72q45 0 79 23.5t53 68 19 106.5-19 107-53.5 69-79.5 24q-44 0-77.5-24t-52-69-18.5-107 19-106.5 53-68 77-23.5z"/></svg>

<?xml version="1.0" encoding="utf-8" ?>
<svg baseProfile="tiny" height="100%" version="1.2" width="100%" xmlns="http://www.w3.org/2000/svg" xmlns:ev="http://www.w3.org/2001/xml-events" xmlns:xlink="http://www.w3.org/1999/xlink"><defs /><g><path d="M281 -15Q202 -15 152.5 15.5Q103 46 80.0 102.5Q57 159 57 235V693H135V246Q135 172 153.5 130.0Q172 88 205.0 70.5Q238 53 280 53Q323 53 355.5 70.0Q388 87 406.5 129.0Q425 171 425 245V693H503V235Q503 159 480.5 102.5Q458 46 409.5 15.5Q361 -15 281 -15Z" transform="translate(0.0, 72) scale(0.072, -0.072)" /><path d="M265 -12Q223 -12 188.5 -7.5Q154 -3 127.5 3.5Q101 10 83 15V762L162 776V497Q176 506 209.0 518.0Q242 530 285 530Q355 530 406.0 495.5Q457 461 484.5 400.0Q512 339 512 259Q512 175 480.5 114.5Q449 54 393.5 21.0Q338 -12 265 -12ZM251 58Q334 58 382.0 109.5Q430 161 430 258Q430 314 415.0 359.5Q400 405 366.5 432.0Q333 459 279 459Q245 459 211.5 444.5Q178 430 162 414V72Q185 65 207.5 61.5Q230 58 251 58Z" transform="translate(40.32, 72) scale(0.072, -0.072)" /><path d="M284 -11Q209 -11 164.0 19.0Q119 49 99.0 102.5Q79 156 79 225V518H157V247Q157 179 171.0 137.5Q185 96 215.0 78.0Q245 60 293 60Q328 60 360.0 64.0Q392 68 399 71V518H477V14Q449 7 400.5 -2.0Q352 -11 284 -11Z" transform="translate(80.64, 72) scale(0.072, -0.072)" /><path d="M83 0V504Q136 518 185.0 523.5Q234 529 271 529Q336 529 383.0 507.5Q430 486 455.5 437.5Q481 389 481 307V0H403V291Q403 363 385.0 398.5Q367 434 336.5 446.0Q306 458 268 458Q243 458 215.0 455.0Q187 452 161 447V0Z" transform="translate(120.96000000000001, 72) scale(0.072, -0.072)" /><path d="M373 -12Q292 -12 252.0 14.5Q212 41 199.0 89.0Q186 137 186 201V451H80V518H186V667L264 681V518H484V451H264V200Q264 145 275.0 114.5Q286 84 311.5 72.0Q337 60 380 60Q420 60 443.5 67.5Q467 75 485 83L497 17Q489 13 457.0 0.5Q425 -12 373 -12Z" transform="translate(161.28, 72) scale(0.072, -0.072)" /><path d="M284 -11Q209 -11 164.0 19.0Q119 49 99.0 102.5Q79 156 79 225V518H157V247Q157 179 171.0 137.5Q185 96 215.0 78.0Q245 60 293 60Q328 60 360.0 64.0Q392 68 399 71V518H477V14Q449 7 400.5 -2.0Q352 -11 284 -11Z" transform="translate(201.6, 72) scale(0.072, -0.072)" /><path d="M263 -15Q215 -15 175.5 -6.5Q136 2 108.0 13.5Q80 25 67 33L92 98Q111 87 155.5 70.5Q200 54 263 54Q310 54 344.0 66.0Q378 78 397.0 103.0Q416 128 416 167Q416 215 392.0 244.5Q368 274 330.5 294.0Q293 314 252 330Q218 344 187.5 361.5Q157 379 134.0 401.0Q111 423 98.0 452.5Q85 482 85 520Q85 609 140.5 659.0Q196 709 296 709Q352 709 400.5 696.5Q449 684 470 667L444 599Q422 612 381.5 626.0Q341 640 293 640Q260 640 230.5 628.0Q201 616 182.0 592.5Q163 569 163 534Q163 492 181.0 466.0Q199 440 231.5 422.0Q264 404 305 385Q350 366 385.0 347.0Q420 328 444.0 304.5Q468 281 480.5 248.5Q493 216 493 170Q493 82 432.5 33.5Q372 -15 263 -15Z" transform="translate(282.24, 72) scale(0.072, -0.072)" /><path d="M294 -12Q254 -12 214.5 -5.5Q175 1 142.5 19.0Q110 37 90.0 69.5Q70 102 70 153Q70 212 103.0 247.0Q136 282 187.0 297.5Q238 313 292 313Q321 313 348.5 309.5Q376 306 402 300V328Q402 361 392.5 392.0Q383 423 355.5 443.0Q328 463 274 463Q224 463 187.5 455.5Q151 448 134 441L125 508Q142 516 185.0 523.0Q228 530 279 530Q355 530 399.0 505.0Q443 480 462.0 436.5Q481 393 481 336V8Q447 2 396.0 -5.0Q345 -12 294 -12ZM288 56Q326 56 355.5 59.0Q385 62 402 66V230Q384 236 356.5 240.5Q329 245 298 245Q263 245 229.0 237.0Q195 229 173.0 209.0Q151 189 151 153Q151 98 187.5 77.0Q224 56 288 56Z" transform="translate(322.56, 72) scale(0.072, -0.072)" /><path d="M83 0V504Q136 518 185.0 523.5Q234 529 271 529Q336 529 383.0 507.5Q430 486 455.5 437.5Q481 389 481 307V0H403V291Q403 363 385.0 398.5Q367 434 336.5 446.0Q306 458 268 458Q243 458 215.0 455.0Q187 452 161 447V0Z" transform="translate(362.88, 72) scale(0.072, -0.072)" /><path d="M259 -12Q227 -12 196.5 -9.0Q166 -6 137.0 1.5Q108 9 78 22L95 96Q134 77 177.5 66.0Q221 55 271 55Q337 55 370.0 72.5Q403 90 403 127Q403 154 382.5 172.5Q362 191 329.5 205.0Q297 219 260 231Q229 242 198.0 255.5Q167 269 142.0 286.5Q117 304 102.0 329.0Q87 354 87 388Q87 429 109.5 461.0Q132 493 178.0 511.5Q224 530 294 530Q335 530 380.0 524.0Q425 518 456 510L442 437Q430 445 405.5 450.5Q381 456 352.0 459.5Q323 463 295 463Q231 463 197.5 446.0Q164 429 164 389Q164 368 181.0 352.5Q198 337 226.0 325.5Q254 314 287 302Q321 289 355.5 274.5Q390 260 419.0 241.0Q448 222 465.5 195.5Q483 169 483 133Q483 85 458.5 52.5Q434 20 384.5 4.0Q335 -12 259 -12Z" transform="translate(403.2, 72) scale(0.072, -0.072)" /><path d="M39 0Q42 86 47.0 174.0Q52 262 58.5 350.0Q65 438 73.5 524.5Q82 611 93 693H170Q190 628 208.5 569.5Q227 511 245.5 454.0Q264 397 282 337Q300 396 317.5 453.0Q335 510 353.5 569.0Q372 628 392 693H470Q486 589 495.0 476.5Q504 364 509.5 245.0Q515 126 521 0H443Q440 78 437.5 177.5Q435 277 432.0 384.0Q429 491 424 591L319 268H245L135 591Q134 492 130.0 385.0Q126 278 122.5 178.0Q119 78 117 0Z" transform="translate(483.84, 72) scale(0.072, -0.072)" /><path d="M278 -11Q212 -11 160.5 22.5Q109 56 79.0 116.5Q49 177 49 259Q49 341 78.5 401.5Q108 462 160.0 496.0Q212 530 278 530Q346 530 398.5 496.0Q451 462 481.0 401.5Q511 341 511 259Q511 177 481.0 116.5Q451 56 398.5 22.5Q346 -11 278 -11ZM279 61Q324 61 358.0 84.5Q392 108 411.0 152.5Q430 197 430 259Q430 321 411.0 366.0Q392 411 357.5 435.0Q323 459 278 459Q234 459 200.5 435.0Q167 411 148.5 366.0Q130 321 130 259Q130 197 149.0 152.5Q168 108 202.0 84.5Q236 61 279 61Z" transform="translate(524.16, 72) scale(0.072, -0.072)" /><path d="M83 0V504Q136 518 185.0 523.5Q234 529 271 529Q336 529 383.0 507.5Q430 486 455.5 437.5Q481 389 481 307V0H403V291Q403 363 385.0 398.5Q367 434 336.5 446.0Q306 458 268 458Q243 458 215.0 455.0Q187 452 161 447V0Z" transform="translate(564.48, 72) scale(0.072, -0.072)" /><path d="M278 -11Q212 -11 160.5 22.5Q109 56 79.0 116.5Q49 177 49 259Q49 341 78.5 401.5Q108 462 160.0 496.0Q212 530 278 530Q346 530 398.5 496.0Q451 462 481.0 401.5Q511 341 511 259Q511 177 481.0 116.5Q451 56 398.5 22.5Q346 -11 278 -11ZM279 61Q324 61 358.0 84.5Q392 108 411.0 152.5Q430 197 430 259Q430 321 411.0 366.0Q392 411 357.5 435.0Q323 459 278 459Q234 459 200.5 435.0Q167 411 148.5 366.0Q130 321 130 259Q130 197 149.0 152.5Q168 108 202.0 84.5Q236 61 279 61Z" transform="translate(604.8000000000001, 72) scale(0.072, -0.072)" /></g></svg>
